src/ui/insight.svg

<?xml version="1.0" encoding="UTF-8"?><svg xmlns="http://www.w3.org/2000/svg" width="32" height="32" viewBox="0 0 32 32"><defs><style>.uuid-28ada86c-ded0-4838-99b6-8fa2da9dedbe{fill:none;}.uuid-1e72c778-0880-4cd3-a2b9-8a9aa513daae{fill:#151515;}</style></defs><g id="uuid-26d47dda-d4fe-4b2a-bd50-220544cfd0e1"><rect class="uuid-28ada86c-ded0-4838-99b6-8fa2da9dedbe" width="32" height="32"/></g><g id="uuid-f510b9a7-5912-47c6-9c38-ba6a44e763d6"><path class="uuid-1e72c778-0880-4cd3-a2b9-8a9aa513daae" d="M19,26h-6c-.55225,0-1,.44775-1,1,0,2.20557,1.79443,4,4,4s4-1.79443,4-4c0-.55225-.44775-1-1-1ZM16,29c-.73877,0-1.38525-.40283-1.73145-1h3.46289c-.34619.59717-.99268,1-1.73145,1Z"/><path class="uuid-1e72c778-0880-4cd3-a2b9-8a9aa513daae" d="M16,1c-5.23828,0-9.5,4.26172-9.5,9.5,0,2.80109,1.22772,5.44409,3.36737,7.25476l1.07013,5.05579c.146.68896.76318,1.18945,1.46777,1.18945h7.18945c.70459,0,1.32178-.50049,1.46777-1.18945l1.07013-5.05579c2.13965-1.81067,3.36737-4.45367,3.36737-7.25476,0-5.23828-4.26172-9.5-9.5-9.5ZM19.18945,22h-6.37891l-.84668-4h8.07227l-.84668,4ZM21.08307,16h-10.16614c-1.53497-1.41913-2.41693-3.40002-2.41693-5.5,0-4.13574,3.36426-7.5,7.5-7.5s7.5,3.36426,7.5,7.5c0,2.09998-.88196,4.08087-2.41693,5.5Z"/></g></svg>

<svg xmlns="http://www.w3.org/2000/svg" viewBox="0 0 32 32">
  <path d="M19 26h-6a1 1 0 0 0-1 1c0 2.206 1.794 4 4 4s4-1.794 4-4a1 1 0 0 0-1-1Zm-3 3a2 2 0 0 1-1.731-1h3.463c-.346.597-.993 1-1.731 1Zm0-28c-5.238 0-9.5 4.262-9.5 9.5a9.489 9.489 0 0 0 3.367 7.255l1.07 5.056A1.507 1.507 0 0 0 12.405 24h7.189c.705 0 1.322-.5 1.468-1.189l1.07-5.056a9.486 9.486 0 0 0 3.367-7.255c0-5.238-4.262-9.5-9.5-9.5Zm3.189 21H12.81l-.847-4h8.072l-.847 4Zm1.894-6H10.917A7.48 7.48 0 0 1 8.5 10.5C8.5 6.364 11.864 3 16 3s7.5 3.364 7.5 7.5a7.48 7.48 0 0 1-2.417 5.5Z"/>
</svg>
